icons/lines/signpost.svg

<svg xmlns="http://www.w3.org/2000/svg" width="24" height="24" viewBox="0 0 24 24" fill="none" stroke="currentColor" stroke-width="2" stroke-linecap="round" stroke-linejoin="round" >
  <path d="M17.22 2H8.96005C8.56005 2 8.18002 2.14 7.87002 2.38L5.68002 4.13C4.80002 4.83 4.80002 6.15999 5.68002 6.85999L7.87002 8.60999C8.18002 8.85999 8.57005 8.98999 8.96005 8.98999H17.22C18.19 8.98999 18.97 8.20999 18.97 7.23999V3.73999C18.97 2.77999 18.19 2 17.22 2Z"/>
  <path d="M6.7998 12H15.0598C15.4598 12 15.8398 12.14 16.1498 12.38L18.3398 14.13C19.2198 14.83 19.2198 16.16 18.3398 16.86L16.1498 18.61C15.8398 18.86 15.4498 18.99 15.0598 18.99H6.7998C5.8298 18.99 5.0498 18.21 5.0498 17.24V13.74C5.0498 12.78 5.8298 12 6.7998 12Z"/>
  <path d="M12 12V9"/>
  <path d="M12 22V19"/>
  <path d="M9 22H15"/>
  </svg>

<svg xmlns="http://www.w3.org/2000/svg" width="24" height="24" viewBox="0 0 24 24" fill="none" stroke="currentColor" stroke-width="2" stroke-linecap="round" stroke-linejoin="round">
  <path d="M12 12V9" />
  <path d="M12 22v-3" />
  <path d="M15.06 12a1.78 1.78 0 0 1 1.09.38l2.19 1.75a1.742 1.742 0 0 1 0 2.73l-2.19 1.75a1.74 1.74 0 0 1-1.09.38H6.8a1.746 1.746 0 0 1-1.75-1.75v-3.5A1.743 1.743 0 0 1 6.8 12z" />
  <path d="M8.96 2a1.78 1.78 0 0 0-1.09.38L5.68 4.13a1.742 1.742 0 0 0 0 2.73l2.19 1.75a1.74 1.74 0 0 0 1.09.38h8.26a1.746 1.746 0 0 0 1.75-1.75v-3.5A1.743 1.743 0 0 0 17.22 2z" />
  <path d="M9 22h6" />
</svg>
